sources/design/Outline/ന_small.svg

<svg:svg xmlns:cc="http://creativecommons.org/ns#" xmlns:dc="http://purl.org/dc/elements/1.1/" xmlns:inkscape="http://www.inkscape.org/namespaces/inkscape" xmlns:rdf="http://www.w3.org/1999/02/22-rdf-syntax-ns#" xmlns:sodipodi="http://sodipodi.sourceforge.net/DTD/sodipodi-0.dtd" xmlns:svg="http://www.w3.org/2000/svg" xml:space="preserve" width="1000" height="1000" version="1.1" style="clip-rule:evenodd;fill-rule:evenodd;image-rendering:optimizeQuality;shape-rendering:geometricPrecision;text-rendering:geometricPrecision" viewBox="0 0 1000 1000" id="svg10" sodipodi:docname="ന_small.svg" inkscape:version="1.0.1 (3bc2e813f5, 2020-09-07)"><svg:metadata id="metadata14"><rdf:RDF><cc:Work rdf:about=""><dc:format>image/svg+xml</dc:format><dc:type rdf:resource="http://purl.org/dc/dcmitype/StillImage" /><dc:title /></cc:Work></rdf:RDF></svg:metadata><sodipodi:namedview pagecolor="#ffffff" bordercolor="#666666" borderopacity="1" objecttolerance="10" gridtolerance="10" guidetolerance="10" inkscape:pageopacity="0" inkscape:pageshadow="2" inkscape:window-width="1920" inkscape:window-height="1015" id="namedview12" showgrid="false" inkscape:zoom="0.9588368" inkscape:cx="362.50651" inkscape:cy="754.64592" inkscape:window-x="1920" inkscape:window-y="0" inkscape:window-maximized="1" inkscape:current-layer="svg10" showguides="true" inkscape:guide-bbox="true" inkscape:document-rotation="0" inkscape:snap-to-guides="true" inkscape:pagecheckerboard="0"><sodipodi:guide position="0,1000" orientation="0,1" id="guide16" inkscape:label="" inkscape:locked="true" inkscape:color="rgb(0,0,255)" /><sodipodi:guide position="1763.3122,2036.1693" orientation="1000,0" id="guide18" /><sodipodi:guide position="0,200" orientation="0,1" id="guide20" inkscape:label="base" inkscape:locked="true" inkscape:color="rgb(0,0,255)" /><inkscape:grid type="xygrid" id="grid24" originx="-473.37552" originy="-489.69235" /><sodipodi:guide position="0,0" orientation="0,1" id="guide34" inkscape:label="bottom" inkscape:locked="true" inkscape:color="rgb(0,0,255)" /><sodipodi:guide position="225.05109,1693.3186" orientation="0,1" id="guide44" inkscape:label="" inkscape:locked="false" inkscape:color="rgb(0,0,255)" /><sodipodi:guide position="0,900" orientation="0,1" id="guide46" inkscape:label="" inkscape:locked="true" inkscape:color="rgb(0,0,255)" /><sodipodi:guide position="486.9344,569.10191" orientation="-1,0" id="guide841" inkscape:label="width" inkscape:locked="false" inkscape:color="rgb(0,0,255)" /><sodipodi:guide position="0,1000" orientation="0,1000" id="guide860" /><sodipodi:guide position="1000,1000" orientation="1000,0" id="guide862" /><sodipodi:guide position="1000,0" orientation="0,-1000" id="guide864" /><sodipodi:guide position="0,0" orientation="-1000,0" id="guide866" /></sodipodi:namedview>
 <svg:defs id="defs4"><inkscape:path-effect effect="spiro" id="path-effect862" is_visible="true" lpeversion="1" /><inkscape:path-effect effect="spiro" id="path-effect1521" is_visible="true" lpeversion="1" /><inkscape:path-effect effect="spiro" id="path-effect858" is_visible="true" lpeversion="1" /><inkscape:path-effect effect="spiro" id="path-effect854" is_visible="true" lpeversion="1" />
  <svg:style type="text/css" id="style2">
   
    .fil0 {fill:#EF7F1A;fill-rule:nonzero}
   
  </svg:style>
 <inkscape:path-effect effect="spiro" id="path-effect1214" is_visible="true" lpeversion="1" /><inkscape:path-effect effect="spiro" id="path-effect1195" is_visible="true" lpeversion="1" /><inkscape:path-effect effect="spiro" id="path-effect992" is_visible="true" lpeversion="1" /><inkscape:path-effect effect="spiro" id="path-effect287" is_visible="true" lpeversion="1" /><inkscape:path-effect effect="spiro" id="path-effect1032" is_visible="true" lpeversion="1" /><inkscape:path-effect effect="spiro" id="path-effect1218" is_visible="true" lpeversion="1" /><inkscape:path-effect effect="spiro" id="path-effect309" is_visible="true" lpeversion="1" /><inkscape:path-effect effect="spiro" id="path-effect1176" is_visible="true" lpeversion="1" /><inkscape:path-effect effect="spiro" id="path-effect1026" is_visible="true" lpeversion="1" /><inkscape:path-effect effect="spiro" id="path-effect1030" is_visible="true" lpeversion="1" /></svg:defs>
 
<svg:g id="path1087-1-75"><svg:path style="color:#000000;clip-rule:nonzero;fill:#1a5fb4;fill-rule:nonzero;stroke-linecap:round;stroke-linejoin:round;-inkscape-stroke:none;paint-order:fill stroke markers;shape-rendering:auto" d="M 387.99023,771.48242 C 366.24001,770.47765 344.97165,774.6343 325.53319999999997,782.48242 C 286.96263,798.0549900000001 257.39604999999995,827.11388 236.29686999999996,859.30664 C 230.14872999999994,850.16404 223.27070999999995,841.49667 215.53710999999996,833.5625 C 192.63297,810.06436 162.83397,792.31396 128.9668,786.10937 C 94.78429,779.84702 58.134346,785.9845 28.314453,806.69922 C 8.8965923,820.18805 -5.8278334,838.63869 -15.539063,859.125 C -25.212725,879.53206 -29.741534,901.47225 -30.236328,923.06445 C -31.223173,966.12919 -16.518185000000003,1005.9447 2.714843799999997,1040.1016 C 28.689790999999996,1086.2317 61.262533999999995,1122.4107 79.751953,1160.8262 C 85.715053,1173.2157 90.519482,1186.1807999999999 94.068359,1199.4648 A 30.003,30.003 0.0 0,0 139.40234,1216.873 L 229.22461,1158.4805000000001 A 30.003,30.003 0.0 0,0 239.45508,1119.9414000000002 L 264.21289,1119.4219 A 30.003,30.003 0.0 0,0 267.16797,1157.0742 L 326.04102,1217.7129 A 30.003,30.003 0.0 0,0 373.77148,1211.416 C 384.22179,1192.6594 395.39927,1174.3071 407.26758,1156.4141 C 429.17656,1123.3833 454.87697000000003,1090.1737 476.40430000000003,1051.8379 C 498.02070000000003,1013.3435 515.3783500000001,968.9704899999999 515.57812,920.6542999999999 C 515.67672,896.8041299999999 511.48086,872.17613 500.97266,849.13672 C 490.40102,825.9582399999999 473.60236000000003,805.01274 450.79102,790.73047 C 431.59624,778.71254 409.8128,772.4905299999999 387.99023,771.4824199999999 L 387.99023,771.48242 M 385.2207,831.4179700000001 C 397.37124,831.97927 409.3204,835.5560700000001 418.95117000000005,841.58594 C 430.3841800000001,848.74419 440.18847000000005,860.45396 446.38281000000006,874.03516 C 451.2940300000001,884.80307 454.13358000000005,897.05328 455.12500000000006,909.8203100000001 C 449.19325000000003,891.42088 438.25272000000007,873.90835 421.0039100000001,861.2988300000001 C 407.7392300000001,851.6018600000001 392.4490100000001,846.1449900000001 376.91602000000006,844.4687500000001 C 361.45884000000007,842.8007000000001 346.30529000000007,844.9137700000001 332.38086000000004,849.7148400000001 C 327.99896000000007,851.2257000000001 323.84170000000006,853.0572000000001 319.78711000000004,855.0253900000001 C 328.62004,847.9496000000001 338.06571,842.1284600000001 347.99609000000004,838.1191400000001 C 360.09367000000003,833.2348400000001 372.99782000000005,830.8533200000002 385.2207,831.4179700000001 M 103.36133000000001,843.8554700000001 C 108.31737000000001,843.8177700000001 113.28999000000002,844.2357900000001 118.1543,845.1269500000001 C 137.15564,848.6080700000001 155.84989000000002,859.07694 170.73633,873.6875000000001 C 154.76451,865.2767900000001 136.67467,861.1932500000001 118.24219000000001,862.5722700000001 C 99.42292300000001,863.9802200000001 81.29087100000001,870.9672400000002 66.394531,883.2441400000001 C 52.532714,894.6684300000002 42.8845,909.4940400000002 37.212891,925.4003900000001 C 34.460474,933.1197000000001 32.710613,940.9674200000002 31.763672,948.7988300000002 C 30.332455,940.5986300000002 29.564551,932.4470100000002 29.748047,924.4394500000002 C 30.070354,910.3743600000001 33.073756,896.6480400000002 38.677734,884.8261700000002 C 44.244146,873.0835500000002 52.672191,862.8361200000002 62.546875,855.9765600000002 C 73.77205599999999,848.1788700000002 88.493213,843.9686700000002 103.36133000000001,843.8554700000002 L 103.36133000000001,843.8554700000001 M 366.02930000000003,903.91992 C 367.54893000000004,903.90062 369.03681000000006,903.96752 370.47852000000006,904.12305 C 376.1695000000001,904.73719 381.6250800000001,906.8350800000001 385.59375000000006,909.7363300000001 C 391.59753000000006,914.12531 396.98998000000006,922.7080900000001 399.25586000000004,932.5683600000001 C 401.60464,942.78938 401.19994,955.1150600000001 398.58203000000003,968.1621100000001 C 390.77691000000004,1007.0611000000001 366.00671000000006,1043.6018000000001 333.57227,1071.4805000000001 C 324.18288,1079.5510000000002 314.16253,1086.8911 303.70898,1093.5488 A 30.003,30.003 0.0 0,0 302.92578,1080.9844 C 299.08806999999996,1067.5221000000001 296.43775,1053.7078000000001 295.01953,1039.7813 C 291.12647,1001.5524000000001 297.76988,962.6551600000001 317.46875,934.6132800000001 C 326.94292,921.1265500000002 339.35768,910.7775800000002 351.93945,906.4394500000002 C 356.63209,904.8214600000002 361.47039,903.9779600000002 366.02930000000003,903.9199200000002 L 366.02930000000003,903.91992 M 122.71875,922.4043 C 129.40034,921.9044200000001 136.861,923.5175800000001 143.14258,926.90234 C 152.81937000000002,932.11659 161.69240000000002,942.69857 166.94141000000002,955.41602 C 172.32318,968.45514 174.37007000000003,983.73955 173.1543,999.12109 C 171.9316,1014.5902 167.4905,1030.4859 160.73242000000002,1045.9355 C 158.14311,1051.855 155.16089000000002,1057.5943 151.98437,1063.2246 C 136.84348,1050.3137 123.29676,1035.6131 112.17773000000001,1019.3613 C 100.47852,1002.2615000000001 92.502362,984.50221 91.12500000000001,968.1582000000001 C 90.44250000000001,960.0595400000001 91.36424900000002,952.1760200000001 93.72656200000002,945.55078 C 96.05445000000002,939.02209 100.03590000000001,933.27106 104.55469000000002,929.54687 C 109.34477000000003,925.5991 116.09842000000002,922.89959 122.71875000000003,922.4043 L 122.71875,922.4043 M 241.23633,960.14648 C 233.90631000000002,988.41731 232.47650000000002,1017.8572 235.32812,1045.8594 C 235.80898000000002,1050.5812 236.42350000000002,1055.2864 237.12891000000002,1059.9785 L 219.52539000000002,1060.3477 C 226.38982000000001,1042.6368 231.39638000000002,1023.7426 232.96875000000003,1003.8496 C 234.08763000000002,989.69393 233.45040000000003,975.18092 230.74023000000003,960.84375 A 30.003,30.003 0.0 0,0 241.23633000000004,960.14648 L 241.23633,960.14648 M 125.70508,1119.2129 C 134.17893,1125.6609 143.07459,1131.5046 152.18164,1137.002 L 138.75976999999997,1145.7266 C 137.18251999999998,1142.0548999999999 135.55002999999996,1138.4066 133.81640999999996,1134.8047 C 131.24066999999997,1129.4531 128.49756999999997,1124.2983 125.70507999999997,1119.2129 L 125.70508,1119.2129 M 350.125,1134.4785 C 347.29969,1138.8790999999999 344.45652,1143.2673 341.70898,1147.7168 L 337.38671999999997,1143.2656 C 341.72418999999996,1140.4709 345.92713999999995,1137.4796999999999 350.12499999999994,1134.4785 L 350.125,1134.4785" id="path21609" /></svg:g></svg:svg>

<svg:svg xmlns:cc="http://creativecommons.org/ns#" xmlns:dc="http://purl.org/dc/elements/1.1/" xmlns:inkscape="http://www.inkscape.org/namespaces/inkscape" xmlns:rdf="http://www.w3.org/1999/02/22-rdf-syntax-ns#" xmlns:sodipodi="http://sodipodi.sourceforge.net/DTD/sodipodi-0.dtd" xmlns:svg="http://www.w3.org/2000/svg" xml:space="preserve" width="1000" height="1000" version="1.1" style="clip-rule:evenodd;fill-rule:evenodd;image-rendering:optimizeQuality;shape-rendering:geometricPrecision;text-rendering:geometricPrecision" viewBox="0 0 1000 1000" id="svg10" sodipodi:docname="ന_small.svg" inkscape:version="1.0.1 (3bc2e813f5, 2020-09-07)"><svg:metadata id="metadata14"><rdf:RDF><cc:Work rdf:about=""><dc:format>image/svg+xml</dc:format><dc:type rdf:resource="http://purl.org/dc/dcmitype/StillImage" /><dc:title /></cc:Work></rdf:RDF></svg:metadata><sodipodi:namedview pagecolor="#ffffff" bordercolor="#666666" borderopacity="1" objecttolerance="10" gridtolerance="10" guidetolerance="10" inkscape:pageopacity="0" inkscape:pageshadow="2" inkscape:window-width="1920" inkscape:window-height="1015" id="namedview12" showgrid="false" inkscape:zoom="0.9588368" inkscape:cx="362.50651" inkscape:cy="754.64592" inkscape:window-x="1920" inkscape:window-y="0" inkscape:window-maximized="1" inkscape:current-layer="svg10" showguides="true" inkscape:guide-bbox="true" inkscape:document-rotation="0" inkscape:snap-to-guides="true" inkscape:pagecheckerboard="0"><sodipodi:guide position="0,1000" orientation="0,1" id="guide16" inkscape:label="" inkscape:locked="true" inkscape:color="rgb(0,0,255)" /><sodipodi:guide position="1763.3122,2036.1693" orientation="1000,0" id="guide18" /><sodipodi:guide position="0,200" orientation="0,1" id="guide20" inkscape:label="base" inkscape:locked="true" inkscape:color="rgb(0,0,255)" /><inkscape:grid type="xygrid" id="grid24" originx="-473.37552" originy="-489.69235" /><sodipodi:guide position="0,0" orientation="0,1" id="guide34" inkscape:label="bottom" inkscape:locked="true" inkscape:color="rgb(0,0,255)" /><sodipodi:guide position="225.05109,1693.3186" orientation="0,1" id="guide44" inkscape:label="" inkscape:locked="false" inkscape:color="rgb(0,0,255)" /><sodipodi:guide position="0,900" orientation="0,1" id="guide46" inkscape:label="" inkscape:locked="true" inkscape:color="rgb(0,0,255)" /><sodipodi:guide position="486.9344,569.10191" orientation="-1,0" id="guide841" inkscape:label="width" inkscape:locked="false" inkscape:color="rgb(0,0,255)" /><sodipodi:guide position="0,1000" orientation="0,1000" id="guide860" /><sodipodi:guide position="1000,1000" orientation="1000,0" id="guide862" /><sodipodi:guide position="1000,0" orientation="0,-1000" id="guide864" /><sodipodi:guide position="0,0" orientation="-1000,0" id="guide866" /></sodipodi:namedview>
 <svg:defs id="defs4"><inkscape:path-effect effect="spiro" id="path-effect862" is_visible="true" lpeversion="1" /><inkscape:path-effect effect="spiro" id="path-effect1521" is_visible="true" lpeversion="1" /><inkscape:path-effect effect="spiro" id="path-effect858" is_visible="true" lpeversion="1" /><inkscape:path-effect effect="spiro" id="path-effect854" is_visible="true" lpeversion="1" />
  <svg:style type="text/css" id="style2">
   
    .fil0 {fill:#EF7F1A;fill-rule:nonzero}
   
  </svg:style>
 <inkscape:path-effect effect="spiro" id="path-effect1214" is_visible="true" lpeversion="1" /><inkscape:path-effect effect="spiro" id="path-effect1195" is_visible="true" lpeversion="1" /><inkscape:path-effect effect="spiro" id="path-effect992" is_visible="true" lpeversion="1" /><inkscape:path-effect effect="spiro" id="path-effect287" is_visible="true" lpeversion="1" /><inkscape:path-effect effect="spiro" id="path-effect1032" is_visible="true" lpeversion="1" /><inkscape:path-effect effect="spiro" id="path-effect1218" is_visible="true" lpeversion="1" /><inkscape:path-effect effect="spiro" id="path-effect309" is_visible="true" lpeversion="1" /><inkscape:path-effect effect="spiro" id="path-effect1176" is_visible="true" lpeversion="1" /><inkscape:path-effect effect="spiro" id="path-effect1026" is_visible="true" lpeversion="1" /><inkscape:path-effect effect="spiro" id="path-effect1030" is_visible="true" lpeversion="1" /></svg:defs>
 
<svg:g id="path1087-1-75"><svg:path style="color:#000000;clip-rule:nonzero;fill:#1a5fb4;fill-rule:nonzero;stroke-linecap:round;stroke-linejoin:round;-inkscape-stroke:none;shape-rendering:auto" d="m 387.99023,771.48242 c -21.75022,-1.00477 -43.01858,3.15188 -62.45703,11 -38.57057,15.57257 -68.13715,44.63146 -89.23633,76.82422 -6.14814,-9.1426 -13.02616,-17.80997 -20.75976,-25.74414 C 192.63297,810.06436 162.83397,792.31396 128.9668,786.10937 94.78429,779.84702 58.134346,785.9845 28.314453,806.69922 8.8965923,820.18805 -5.8278334,838.63869 -15.539063,859.125 c -9.673662,20.40706 -14.202471,42.34725 -14.697265,63.93945 -0.986845,43.06474 13.718143,82.88025 32.9511718,117.03715 25.9749472,46.1301 58.5476902,82.3091 77.0371092,120.7246 5.9631,12.3895 10.767529,25.3546 14.316406,38.6386 a 30.003,30.003 0 0 0 45.333981,17.4082 l 89.82227,-58.3925 a 30.003,30.003 0 0 0 10.23047,-38.5391 l 24.75781,-0.5195 a 30.003,30.003 0 0 0 2.95508,37.6523 l 58.87305,60.6387 a 30.003,30.003 0 0 0 47.73046,-6.2969 c 10.45031,-18.7566 21.62779,-37.1089 33.4961,-55.0019 21.90898,-33.0308 47.60939,-66.2404 69.13672,-104.5762 21.6164,-38.4944 38.97405,-82.86741 39.17382,-131.1836 0.0986,-23.85017 -4.09726,-48.47817 -14.60546,-71.51758 -10.57164,-23.17848 -27.3703,-44.12398 -50.18164,-58.40625 -19.19478,-12.01793 -40.97822,-18.23994 -62.80079,-19.24805 z m -2.76953,59.93555 c 12.15054,0.5613 24.0997,4.1381 33.73047,10.16797 11.43301,7.15825 21.2373,18.86802 27.43164,32.44922 4.91122,10.76791 7.75077,23.01812 8.74219,35.78515 -5.93175,-18.39943 -16.87228,-35.91196 -34.12109,-48.52148 -13.26468,-9.69697 -28.5549,-15.15384 -44.08789,-16.83008 -15.45718,-1.66805 -30.61073,0.44502 -44.53516,5.24609 -4.3819,1.51086 -8.53916,3.34236 -12.59375,5.31055 8.83293,-7.07579 18.2786,-12.89693 28.20898,-16.90625 12.09758,-4.8843 25.00173,-7.26582 37.22461,-6.70117 z m -281.85937,12.4375 c 4.95604,-0.0377 9.92866,0.38032 14.79297,1.27148 19.00134,3.48112 37.69559,13.94999 52.58203,28.56055 -15.97182,-8.41071 -34.06166,-12.49425 -52.49414,-11.11523 -18.819267,1.40795 -36.951319,8.39497 -51.847659,20.67187 -13.861817,11.42429 -23.510031,26.2499 -29.18164,42.15625 -2.752417,7.71931 -4.502278,15.56703 -5.449219,23.39844 -1.431217,-8.2002 -2.199121,-16.35182 -2.015625,-24.35938 0.322307,-14.06509 3.325709,-27.79141 8.929687,-39.61328 5.566412,-11.74262 13.994457,-21.99005 23.869141,-28.84961 11.225181,-7.79769 25.946338,-12.00789 40.814455,-12.12109 z m 262.66797,60.06445 c 1.51963,-0.0193 3.00751,0.0476 4.44922,0.20313 5.69098,0.61414 11.14656,2.71203 15.11523,5.61328 6.00378,4.38898 11.39623,12.97176 13.66211,22.83203 2.34878,10.22102 1.94408,22.5467 -0.67383,35.59375 -7.80512,38.89899 -32.57532,75.43969 -65.00976,103.31839 -9.38939,8.0705 -19.40974,15.4106 -29.86329,22.0683 a 30.003,30.003 0 0 0 -0.7832,-12.5644 c -3.83771,-13.4623 -6.48803,-27.2766 -7.90625,-41.2031 -3.89306,-38.2289 2.75035,-77.12614 22.44922,-105.16802 9.47417,-13.48673 21.88893,-23.8357 34.4707,-28.17383 4.69264,-1.61799 9.53094,-2.46149 14.08985,-2.51953 z M 122.71875,922.4043 c 6.68159,-0.49988 14.14225,1.11328 20.42383,4.49804 9.67679,5.21425 18.54982,15.79623 23.79883,28.51368 5.38177,13.03912 7.42866,28.32353 6.21289,43.70507 -1.2227,15.46911 -5.6638,31.36481 -12.42188,46.81441 -2.58931,5.9195 -5.57153,11.6588 -8.74805,17.2891 -15.14089,-12.9109 -28.68761,-27.6115 -39.80664,-43.8633 -11.69921,-17.0998 -19.675368,-34.85909 -21.05273,-51.2031 -0.6825,-8.09866 0.239249,-15.98218 2.601562,-22.60742 2.327888,-6.52869 6.309338,-12.27972 10.828128,-16.00391 4.79008,-3.94777 11.54373,-6.64728 18.16406,-7.14257 z m 118.51758,37.74218 c -7.33002,28.27083 -8.75983,57.71072 -5.90821,85.71292 0.48086,4.7218 1.09538,9.427 1.80079,14.1191 l -17.60352,0.3692 c 6.86443,-17.7109 11.87099,-36.6051 13.44336,-56.4981 1.11888,-14.15567 0.48165,-28.66868 -2.22852,-43.00585 a 30.003,30.003 0 0 0 10.4961,-0.69727 z M 125.70508,1119.2129 c 8.47385,6.448 17.36951,12.2917 26.47656,17.7891 l -13.42187,8.7246 c -1.57725,-3.6717 -3.20974,-7.32 -4.94336,-10.9219 -2.57574,-5.3516 -5.31884,-10.5064 -8.11133,-15.5918 z m 224.41992,15.2656 c -2.82531,4.4006 -5.66848,8.7888 -8.41602,13.2383 l -4.32226,-4.4512 c 4.33747,-2.7947 8.54042,-5.7859 12.73828,-8.7871 z" id="path21557" /></svg:g></svg:svg>
